img/code.svg

<svg enable-background="new 0 0 512 512" height="300" viewBox="0 0 512 512" width="300" xmlns="http://www.w3.org/2000/svg"><path d="m502.6 238.6-101.6-101.6c-9.9-9.9-26-9.9-35.9 0s-9.9 26 0 35.9l83.6 83.6-83.7 83.7c-9.9 9.9-9.9 26 0 35.9 7.8 7.8 27.1 8.8 35.9 0l101.6-101.6c10-9.9 10-25.9.1-35.9z"/><path d="m147 137c-9.9-9.9-26-9.9-35.9 0l-101.7 101.6c-9.9 9.9-9.9 26 0 35.9l101.6 101.7c8.8 8.8 28.1 7.8 35.9 0 9.9-9.9 9.9-26 0-35.9l-83.6-83.6 83.7-83.7c9.9-10 9.9-26 0-36z"/><path d="m327.1 28.7c-13.4-4.2-27.6 3.2-31.8 16.7l-127 406.4c-4.2 13.4 3.1 28.1 16.7 31.8 14.5 3.9 28.4-5.8 31.8-16.7l127-406.4c4.1-13.4-3.3-27.6-16.7-31.8z"/></svg>

<svg height='300px' width='300px' fill="#000000" 
    xmlns="http://www.w3.org/2000/svg" 
    xmlns:xlink="http://www.w3.org/1999/xlink" version="1.1" x="0px" y="0px" viewBox="0 0 512 512" enable-background="new 0 0 512 512" xml:space="preserve">
    <g>
        <path d="M502.6,238.6L401,137c-9.9-9.9-26-9.9-35.9,0c-9.9,9.9-9.9,26,0,35.9l83.6,83.6L365,340.2c-9.9,9.9-9.9,26,0,35.9   c7.8,7.8,27.1,8.8,35.9,0l101.6-101.6C512.5,264.6,512.5,248.6,502.6,238.6z"></path>
        <path d="M147,137c-9.9-9.9-26-9.9-35.9,0L9.4,238.6c-9.9,9.9-9.9,26,0,35.9L111,376.2c8.8,8.8,28.1,7.8,35.9,0   c9.9-9.9,9.9-26,0-35.9l-83.6-83.6L147,173C156.9,163,156.9,147,147,137z"></path>
        <path d="M327.1,28.7c-13.4-4.2-27.6,3.2-31.8,16.7l-127,406.4c-4.2,13.4,3.1,28.1,16.7,31.8c14.5,3.9,28.4-5.8,31.8-16.7l127-406.4   C347.9,47.1,340.5,32.9,327.1,28.7z"></path>
    </g>
</svg>
